X:1
T:Jackaroe
M:2/4
L:1/8
K:G
 B,| E3/2 E/2 GA| B2 AB| dd dA| B4-| B2 z B| B3/2 E/2 EE| D2 B,3/2 D/2|\
 EF E/2 B,3/2| D4-| D2 z2| E3 G| F3/2 B,/2 B,E| E4-| E3/2||
